public/images/mintr-logo-dark.svg

<?xml version="1.0" encoding="UTF-8"?>
<svg width="232px" height="64px" viewBox="0 0 232 64" version="1.1" xmlns="http://www.w3.org/2000/svg" xmlns:xlink="http://www.w3.org/1999/xlink">
    <!-- Generator: Sketch 56.3 (81716) - https://sketch.com -->
    <title>atoms / logo / full / dark</title>
    <desc>Created with Sketch.</desc>
    <g id="atoms-/-logo-/-full-/-dark" stroke="none" stroke-width="1" fill="none" fill-rule="evenodd">
        <g id="Group">
            <path d="M90.0875448,13.731405 L100.712296,36.5936639 L111.337047,13.731405 L121.066454,13.731405 L121.066454,52.1707989 L113.96339,52.1707989 L113.96339,22.9710744 L102.980501,47.9655647 L98.3844011,47.9655647 L87.0433745,22.1418733 L87.0433745,52.1707989 L80,52.1707989 L80,13.731405 L90.0875448,13.731405 Z M132.765619,23.3264463 L139.808993,23.3264463 L139.808993,52.1707989 L132.765619,52.1707989 L132.765619,23.3264463 Z M131.929964,14.0867769 C131.929964,12.823226 132.307995,11.8262204 133.064067,11.09573 C133.820139,10.3652397 134.894541,10 136.287306,10 C137.640277,10 138.704731,10.3652397 139.4807,11.09573 C140.256669,11.8262204 140.644648,12.823226 140.644648,14.0867769 C140.644648,15.3503277 140.256669,16.3473334 139.4807,17.0778237 C138.704731,17.808314 137.640277,18.1735537 136.287306,18.1735537 C134.894541,18.1735537 133.820139,17.808314 133.064067,17.0778237 C132.307995,16.3473334 131.929964,15.3503277 131.929964,14.0867769 Z M158.670911,28.3608815 C160.580988,24.530743 163.645025,22.6157025 167.863112,22.6157025 C171.444507,22.6157025 174.140461,23.780521 175.951055,26.1101928 C177.761649,28.4398647 178.666932,31.5197237 178.666932,35.3498623 L178.666932,52.1707989 L171.623558,52.1707989 L171.623558,35.3498623 C171.623558,33.2176202 171.106253,31.6085913 170.071628,30.5227273 C169.037002,29.4368633 167.58457,28.8939394 165.714286,28.8939394 C163.844002,28.8939394 162.242346,29.7231322 160.909272,31.3815427 C159.576197,33.0399532 158.869877,35.5275316 158.79029,38.8443526 L158.79029,52.1707989 L151.746916,52.1707989 L151.746916,23.3856749 L157.894946,23.3856749 L158.670911,28.3608815 Z M205.2885,51.4600551 C202.662144,52.4866902 200.592924,53 199.08078,53 C197.568635,53 196.245529,52.822314 195.111421,52.4669421 C193.977312,52.1115685 192.972547,51.578516 192.097095,50.8677686 C190.266604,49.2488441 189.351373,47.0179206 189.351373,44.1749311 L189.351373,28.0647383 L185.292479,28.0647383 L185.292479,23.3856749 L189.351373,23.3856749 L189.351373,15.8044077 L196.394747,15.8044077 L196.394747,23.3856749 L204.273776,23.3856749 L204.273776,28.0647383 L196.394747,28.0647383 L196.394747,43.9380165 C196.394747,46.3071744 197.528839,47.4917355 199.797055,47.4917355 C200.95106,47.4917355 202.443286,47.1758526 204.273776,46.5440771 L205.2885,51.4600551 Z M219.554318,29.0716253 C221.305222,24.9255991 223.931538,22.8526171 227.433347,22.8526171 C228.109832,22.8526171 228.965375,22.9908159 230,23.2672176 L229.880621,30.2561983 C228.766409,30.0192826 227.67211,29.9008264 226.597692,29.9008264 C221.902086,29.9008264 219.554318,33.1188843 219.554318,39.5550964 L219.554318,52.1707989 L212.510943,52.1707989 L212.510943,23.3264463 L219.554318,23.3264463 L219.554318,29.0716253 Z" id="Mintr" fill="#1E1A31"></path>
            <g id="atoms-/-logo-/-glyph-/-new-/-colour">
                <g id="atoms-/-spacing-/-boundingBox">
                    <rect id="boundingBox" x="0" y="0" width="64" height="64"></rect>
                </g>
                <g id="Glyph" stroke-width="1" fill-rule="evenodd" transform="translate(4.000000, 9.000000)" fill="#10BA97">
                    <path d="M0,16 C11.5979797,16 21,25.2987013 21,36.7692308 L21,46 C9.40202025,46 0,36.7012987 0,25.2307692 L0,16 Z M25,29.9 C25,13.386686 38.8791728,0 56,0 L56,16.1 C56,32.613314 42.1208272,46 25,46 L25,29.9 Z" id="Combined-Shape"></path>
                </g>
            </g>
        </g>
    </g>
</svg>

<svg width="232" height="64" xmlns="http://www.w3.org/2000/svg"><g fill="none" fill-rule="evenodd"><path d="M90.088 13.731l10.624 22.863 10.625-22.863h9.73v38.44h-7.104v-29.2l-10.982 24.995h-4.597l-11.34-25.824V52.17H80V13.73h10.088zm42.678 9.595h7.043v28.845h-7.043V23.326zm-.836-9.24c0-1.263.378-2.26 1.134-2.99.756-.73 1.83-1.096 3.223-1.096 1.353 0 2.418.365 3.194 1.096.776.73 1.164 1.727 1.164 2.99 0 1.264-.388 2.261-1.164 2.992-.776.73-1.84 1.096-3.194 1.096-1.392 0-2.467-.366-3.223-1.096-.756-.73-1.134-1.728-1.134-2.991zm26.74 14.275c1.911-3.83 4.975-5.745 9.193-5.745 3.582 0 6.277 1.165 8.088 3.494 1.81 2.33 2.716 5.41 2.716 9.24v16.82h-7.043V35.35c0-2.132-.518-3.741-1.552-4.827-1.035-1.086-2.487-1.63-4.358-1.63-1.87 0-3.472.83-4.805 2.489-1.333 1.658-2.04 4.146-2.119 7.462v13.327h-7.043V23.386h6.148l.776 4.975zm46.619 23.1C202.661 52.486 200.593 53 199.08 53c-1.512 0-2.835-.178-3.97-.533a9 9 0 01-3.014-1.6c-1.83-1.618-2.746-3.85-2.746-6.692v-16.11h-4.059v-4.68h4.06v-7.58h7.043v7.58h7.879v4.68h-7.88v15.873c0 2.37 1.135 3.554 3.403 3.554 1.154 0 2.646-.316 4.477-.948l1.014 4.916zm14.265-22.39c1.751-4.145 4.378-6.218 7.88-6.218.676 0 1.531.138 2.566.414l-.12 6.99a15.757 15.757 0 00-3.282-.356c-4.696 0-7.044 3.218-7.044 9.654v12.616h-7.043V23.326h7.043v5.746z" fill="#1E1A31"/><path d="M0 0h64v64H0z"/><path d="M4 25c11.598 0 21 9.299 21 20.77V55C13.402 55 4 45.701 4 34.23V25zm25 13.9C29 22.387 42.88 9 60 9v16.1C60 41.613 46.12 55 29 55V38.9z" fill="#10BA97"/></g></svg>
